.local/share/icons/Gruvbox-Plus-Dark/actions/16/align-vertical-center.svg

<svg width="16" height="16" version="1.1" xmlns="http://www.w3.org/2000/svg">
  <defs>
    <style id="current-color-scheme" type="text/css">.ColorScheme-Text { color:#ebdbb2; } .ColorScheme-Highlight { color:#458588; }</style>
  </defs>
  <path class="ColorScheme-Text" d="m2 3v4h-1v2h1v4h4v-4h4v4h4v-4h1v-2h-1v-4h-4v4h-4v-4h-4z" fill="currentColor"/>
</svg>

<svg xmlns="http://www.w3.org/2000/svg" width="16" height="16" viewBox="0 0 16 16">
 <defs>
  <style id="current-color-scheme" type="text/css">
   .ColorScheme-Text { color:#ebdbb2; } .ColorScheme-Highlight { color:#458588; }
  </style>
 </defs>
 <path style="fill:currentColor" class="ColorScheme-Text" d="M 2 3 L 2 7 L 1 7 L 1 9 L 2 9 L 2 13 L 6 13 L 6 9 L 10 9 L 10 13 L 14 13 L 14 9 L 15 9 L 15 7 L 14 7 L 14 3 L 10 3 L 10 7 L 6 7 L 6 3 L 2 3 z"/>
</svg>
